src/assets/icons/technologies/7-icon-tailwindCSS.svg

<svg width="105" height="64" viewBox="0 0 105 64" fill="none" xmlns="http://www.w3.org/2000/svg">
    <g clip-path="url(#clip0_408_876)">
        <mask id="mask0_408_876" style="mask-type:luminance" maskUnits="userSpaceOnUse" x="0" y="0" width="105" height="63">
            <path d="M0.207764 0H104.935V62.8364H0.207764V0Z" fill="white"/>
        </mask>
    <g mask="url(#mask0_408_876)">
        <path fill-rule="evenodd" clip-rule="evenodd" d="M52.5714 0C38.6078 0 29.8805 6.98182 26.3896 20.9455C31.6259 13.9636 37.735 11.3455 44.7169 13.0909C48.7004 14.0858 51.5474 16.9775 54.6989 20.1755C59.8325 25.3867 65.7748 31.4182 78.7532 31.4182C92.7169 31.4182 101.444 24.4364 104.935 10.4727C99.6987 17.4545 93.5896 20.0727 86.6078 18.3273C82.6242 17.3324 79.7772 14.4407 76.6257 11.2427C71.4921 6.03151 65.5498 0 52.5714 0ZM26.3896 31.4182C12.4259 31.4182 3.69867 38.4 0.207764 52.3636C5.44413 45.3818 11.5532 42.7636 18.535 44.5091C22.5186 45.5059 25.3656 48.3956 28.5171 51.5937C33.6507 56.8048 39.593 62.8364 52.5714 62.8364C66.535 62.8364 75.2623 55.8545 78.7532 41.8909C73.5169 48.8727 67.4078 51.4909 60.4259 49.7455C56.4424 48.7505 53.5954 45.8589 50.4439 42.6608C45.3103 37.4497 39.368 31.4182 26.3896 31.4182Z" fill="#38BDF8"/>
    </g>
    </g>
    <defs>
        <clipPath id="clip0_408_876">
        <rect width="104.727" height="64" fill="white" transform="translate(0.207764)"/>
    </clipPath>
    </defs>
</svg>

<svg xmlns="http://www.w3.org/2000/svg" width="105" height="64" fill="none"><g clip-path="url(#a)" transform="rotate(39.48 49.26 35.14)"><mask id="b" width="105" height="63" x="0" y="0" maskUnits="userSpaceOnUse" style="mask-type:luminance"><path fill="#fff" d="M.2 0h104.73v62.84H.22V0Z"/></mask><g mask="url(#b)"><path fill="#38BDF8" fill-rule="evenodd" d="M52.57 0C38.61 0 29.88 6.98 26.4 20.95c5.24-6.99 11.34-9.6 18.33-7.86 3.98 1 6.83 3.89 9.98 7.09 5.13 5.2 11.07 11.24 24.05 11.24 13.97 0 22.7-6.98 26.19-20.95-5.24 6.98-11.35 9.6-18.33 7.86-3.99-1-6.83-3.89-9.98-7.09C71.49 6.04 65.55 0 52.57 0ZM26.4 31.42c-13.96 0-22.7 6.98-26.18 20.94 5.23-6.98 11.34-9.6 18.32-7.85 3.99 1 6.84 3.89 9.99 7.08 5.13 5.21 11.07 11.25 24.05 11.25 13.96 0 22.7-6.99 26.18-20.95-5.23 6.98-11.34 9.6-18.32 7.86-3.99-1-6.83-3.9-9.99-7.09-5.13-5.21-11.07-11.24-24.05-11.24Z" clip-rule="evenodd"/></g></g><defs><clipPath id="a"><path fill="#fff" d="M.2 0h104.74v64H.2z"/></clipPath></defs></svg>
